X: 331
T: Gongchandang enqing changyouchang
%%abc-version 2.0
%%abcx-abcm2ps-target-version 5.9.1 (29 Sep 2008)
%%abc-creator hum2abc beta
%%abcx-conversion-date 2013/10/02 07:52:30
%%abc-edited-by Helmut Schaffrath
%%humdrum-veritas 1653423030
%%humdrum-veritas-data 46436175
%%continueall 1
%%barnumbers 0
L: 1/8
M: 2/4
K: F
c c G G [I:setbarnb 1]| 
A cG2 | 
c A c d | 
A> cG2 | 
c2G2 | 
c> d A G | 
FD2A | 
G4 | 
F DF2 | 
c2A c | 
G A c A | 
G A c A | 
G A G F | 
C F G A | 
G F _E D | 
C3D | 
C4 | 
A> G F A | 
G4 | 
C F G A | 
G F _E D | 
C3D | 
C4 |]  



